X: 186
T: 7me ĖTUDE	 Op. 25
C: F. Chopin
%%abc-version 2.0
%%abcx-abcm2ps-target-version 5.9.1 (29 Sep 2008)
%%abc-creator hum2abc beta
%%abcx-conversion-date 2021/10/03 11:23:35
%%abc-edited-by Emilia Ziętek
%%abc-edited-by Mateusz Mrugas
%%abc-edited-by Wojciech Jakubiak-Danek
%%abcx-initial-encoding-date 2018-11-13
%%humdrum-veritas 1630802972
%%humdrum-veritas-data 1006275883
%%linebreak <none>
%%barnumbers 0
L: 1/8
N: Derived from 025-1b-LE-007.krn
P: Etudes POUR LE PIANO
Q: "[quarter] = 66"
%%staves {1 2}
V: 1 clef=treble
V: 2 clef=bass
K: E
[V:1] x14x8 [I:setbarnb 1]| 
[V:2] G,,2D,2>C,2C,2^B,,2A,2>G,2 ^^F,/G,/A,/G,/ B,/A,/E,/^E,/ ^F,/E,/G,/F,/ A,/G,/C,/D,/ | 
[V:1] [M:3/4]z [cG][cG][cG][cG][cG] | 
[V:2] [M:3/4]{/E,}E4D3/C/ | 
[V:1] e4d3/c/ & [AE][AE][AE][AE][AE][AE] | 
[V:2] C7/D//C// B,3/A,/ | 
[V:1] c2^B2c2 & [FD][FD][FD][FD][FD][FD] | 
[V:2] A,2-A,/G,/^^F,/G,/ B,/A,/^F,/D,/ | 
[V:1] d2G3G & [FD][FD][FD][FD][F^B,][FB,] | 
[V:2] ^B,,2z !accent!^^F,,/G,,/ {/=B,,} A,,/G,,/C,/D,/ | 
[V:1] G2c2B2 & z C[EC][EC][EC][EC] | 
[V:2] E,2C,,2G,3/G,/ | 
[V:1] B2A2G2 & [EC][EC][EC][EC][EC][EC] | 
[V:2] G,2(3F,,C,F, (3G,B,A, | 
[V:1] G2F2FE & [DC][DC] [DA,][DG,] [CG,][CG,] | 
[V:2] A,2^B,,2!trill!C,^B,,//C,//D,//E,// | 
[V:1] EDx4 & [^B,G,][B,G,] [GG,][GG,][G^FD][GFD] | 
[V:2] G,,2!accent!^^F,,/G,,/^B,,/D,/ ^^F,/G,/{/B,}A,/G,/ | 
[V:1] z [cG][cG][cG][cG][cG] | 
[V:2] {/C,}E4D3/C/ | 
[V:1] e4d3/c/ & [AE][AE][AE][AE][AE][AE] | 
[V:2] C3-C//^B,//D//C// =B,3/A,/ | 
[V:1] c4B2 & [AD][AD][AD][AD]A[FD] | 
[V:2] B,,,F,,/B,,/ D,/F,/A,/B,/ D/C/ (3C/B,/A,/ | 
[V:1] B4B3/B/ & [F=D][FD][=FD][FD][^E^C][EC] | 
[V:2] G,2>>G,2 {/B,} A,3/G,/ | 
[V:1] B2A4- & [FC][FC][FC][FC][FC][FC] | 
[V:2] G,2F,,>C, F,/G,/A,/B,/ | 
[V:1] A6- & F[FE][FE][FE][FE][FE] | 
[V:2] =C/G,/A,/B,/ C/A,/^A,/B,/C2- | 
[V:1] A4x2 & [FE][FE][FE][FE][FE][FE] | 
[V:2] =C/=B,/=D/=C/ B,/G,/B,/A,/ C/A,/E,/C,/ | 
[V:1] =c4-c3/c/ & [FE][FE][AE][AE][FE][FE] | 
[V:2] A,/G,/B,/A,/ F,/^E,/=G,/F,/ A,/F,/=C,/A,,/ | 
[V:1] =c2B2x2 & [GE][GE][GE][GE][GE][GE] | 
[V:2] B,,/E,/G,/E,/B,3G, | 
[V:1] z [GE][GE][GE][GE][GE] | 
[V:2] E/B,/C/>G,/B,2C/G,/B,3//E,// | 
[V:1] B4B2 & [EB,][EB,][EB,][EB,][ADB,][ADB,] | 
[V:2] G,2-G,/^A,,/C,/B,,< F,E,/ | 
[V:1] [BGEB,].[GEB,].[BGE].[eBG].[geB].[eBG] | 
[V:2] E,2z2z2 | 
[V:1] c2d2-{/d2d2e2d2^^c2d2} ^f3/e/ & [^A^^F][AF][AF][AF][^c^^F][cF] | 
[V:2] E2D2^A,2 | 
[V:1] dg2x3 & [^A^^F][dG][dG][dBG][dBG][dBG] | 
[V:2] C2{/B,2D2C2} B, !accent!^^F,,//G,,//^A,,//B,,// ^^C,//D,//^^F,//G,// (3:2:6^A,//B,//^^C// D//E//^E// | 
[V:1] d2^e2f2 & [^B^^G][BG][dG][dG][dG][dG] | 
[V:2] [K:clef=treble]F2^E/>F/ (3E/^^D/E/ ^B3/^D/ | 
[V:1] f^e^a2x2 & [B^G][BG] [e^AG][eAG][eAG][eAG] | 
[V:2] !accent!D2{/^^C2^E2D2} ^^C[K:clef=bass] !accent!^^G,,//^A,,//C,//^^C,// ^^D,//^E,//G,//A,//[K:clef=treble] (3:2:6^C//^^C//^^D// ^E//^^G//^A// | 
[V:1] ^e2f2^^f2 & [^^cG][cG][dA][dA][dA][dA] | 
[V:2] B>>B,B,2[K:clef=bass]{/^A,B,}!accent!!trill!B,2 | 
[V:1] g2[a4f4] & [eG][eG] [dA][dA][dA][dA] | 
[V:2] (13:8:13^A,//B,//C//B,//=A,//G,//^^F,//A,//G,//^F,//E,//D,//C,// !accent!=C,//B,,//^A,,//B,,// !accent!_B,,//=A,,//^G,,//A,,// (3:2:12!accent!_A,,//=G,,//F,,//G,,//F,,//=F,,// E,,//_E,,//=D,,//_D,,//=C,,//B,,,// | 
[V:1] [_b2g2][=g2e2]=f2 & [_e_B][eB] [B=G][BG] [B_A][BAD] | 
[V:2] (29:16:58_B,,,/16A,,,/16B,,,/16=C,,/16=D,,/16_E,,/16F,,/16=G,,/16_A,,/16_B,,/16=C,/16=D,/16_E,/16=F,/16=G,/16_A,/16_B,/16=C/16=D/16_E/16=F/16=G/16F/16E/16D/16C/16B,/16=A,/16C/16B,/16_A,/16G,/16F,/16E,/16D,/16C,/16_B,,/16=A,,/16_C,/16B,,/16=C,/16=B,,/16D,/16C,/16_B,,/16A,,/16C,/16B,,/16_A,,/16G,,/16F,,/16E,,/16D,,/16C,,/16B,,,/16A,,,/16=G,,,/16F,,,/16 | 
[V:1] !accent!e4^dd & [=G_E]EEEx2 | 
[V:2] _E,,,2z2^D3/C/ | 
[V:1] d4d3/e/ & z [FD][FD][FD] z [BF] | 
[V:2] B,/F,/B,,/C,/ D,/F,,/B,,,/ z< !accent!DC/ | 
[V:1] f4f7//g// & z [dBF][dBF][dBF]-[dBF][dBF]- | 
[V:2] B,/F,/B,,/C,/ D,/F,,/B,,,/ z< !accent!DC/ | 
[V:1] g4f7//d// & [dBF][dBF][dBF][dB-F-] [BF][B-F] | 
[V:2] B,/F,/B,,/C,/ D,/F,,/D,,/ z< !accent!DC/ | 
[V:1] d2>c2B3/-c/ & B[B=GE][BGE][GE]-[GE][BGE] | 
[V:2] B,/=G,/E,/F,/ G,/B,,/B,,,/ z< DC/ | 
[V:1] [d4B4]d7//e// & z [FD][FD][FD] z [BF]- | 
[V:2] B,/F,/B,,/C,/ D,/F,,/B,,,/ z< DC/ | 
[V:1] f4f7//g// & [BF][dBF][dBF][dBF]-[dBF][dBF] | 
[V:2] B,/F,/B,,/C,/ D,/F,,/B,,,/ z< !accent!DC/ | 
[V:1] a2x4 & [dBF][d2B2F2][d2B2F2][dBF] | 
[V:2] B,/F,/B,,/C,/ D,/F,,/B,,,/ z< DC/ | 
[V:1] [d4B4F4]z [dBF] | 
[V:2] B,/F,/B,,/C,/ D,/F,,/B,,,/ !fermata!z< !accent!B,A,/ | 
[V:1] e4e7//=d// & [BE][BE][BE][BE][BE][BE] | 
[V:2] A,2=G,2!trill!^G,2{/^^F,G,} | 
[V:1] =d>=cB2d3/c/ & [AE][=AE][=GE][GE][AE][AE] | 
[V:2] A,2E,2A,2 | 
[V:1] B2BA/ z/z2 & [=GE][GE][=F2C2]x2 | 
[V:2] E,2=F,2C,3/_B,,/ | 
[V:1] z6 | 
[V:2] A,,/=C,/=F,/C,/A,2z2 | 
[V:1] z [GE] [GE][GE][GE][GE] | 
[V:2] B,,/E,/G,/E,/B,3G, | 
[V:1] z [GE] [GE][GE][GE][GE] | 
[V:2] E/B,/C/G,/B,2C/G,/B,3//E,// | 
[V:1] B4B2 & [EB,][EB,][EB,][EB,][ADB,][ADB,] | 
[V:2] G,2-G,/^A,,/C,/B,,< F,E,/ | 
[V:1] B4^B7//c// & [GEB,][GEB,][GEB,][GEB,][GF^B,][GFB,] | 
[V:2] E,2-E,/^^F,,/A,,/G,,< D,C,/ | 
[V:1] z [cG][cG][cG][cG][cG] | 
[V:2] {/C,,C,}!accent!E4D3/C/ | 
[V:1] e4d3/c/ & [AE][AE][AE][AE][AE][AE] | 
[V:2] C7/D//C// B,3/A,/ | 
[V:1] c2^B2c2 & [FD][FD][FD][FD][FD][FD] | 
[V:2] A,2-A,/^G,/^^F,/G,/ B,/A,/^F,/D,/ | 
[V:1] d2G7/G/ & [FD][FD][FD][FD][F^B,][FB,] | 
[V:2] ^B,,2z ^^F,,/G,,/ {/=B,,} A,,/G,,/C,/D,/ | 
[V:1] G2c2B2 & z C[EC][EC][EC][EC] | 
[V:2] E,2C,,2G,3/G,/ | 
[V:1] B2A2G2 & [EC][EC][EC][EC][EC][EC] | 
[V:2] !accent!G,2{/F,,,2} (3F,,C,F, (3G,B,A, | 
[V:1] G2F2FE & [DC][DC][DA,][DG,][CG,][CG,] | 
[V:2] A,2^B,,2!trill!C,^B,,//C,//D,//E,// | 
[V:1] ED [GG,][GG,][GFD][GFD] & [^B,G,][B,G,]x4 | 
[V:2] G,,2(33:32:33^^F,,,/8G,,,/8A,,,/8^A,,,/8B,,,/8^B,,,/8C,,/8^^C,,/8D,,/8E,,/8^E,,/8^F,,/8^^F,,/8G,,/8A,,/8^A,,/8B,,/8^B,,/8C,/8^^C,/8D,/8E,/8^E,/8F,/8^^F,/8G,/8A,/8^A,/8B,/8^B,/8C/8^^C/8D/8 | 
[V:1] z [cG][cG][cG][cG][cG] | 
[V:2] E4D3/C/ | 
[V:1] e4d3/c/ & [AE][AE][AE][AE] [AE][AE] | 
[V:2] C3-C//^B,//D//C// =B,3/A,/ | 
[V:1] c2B2B2 & [^E=D][ED][ED][ED][FD][FD] | 
[V:2] A,2G,2{/^E,F,}!accent!!trill!F,2 | 
[V:1] B4c3/B/ & [G=D][GD]DD[GC][GC] | 
[V:2] ^E,2!accent!G2!accent!^E,,2 | 
[V:1] B2A4- & [FC][FC][FC][FC][FC][FC] | 
[V:2] F,,/G,,/F,,/^E,,/ F,,/G,,/A,,/G,,/ B,,/A,,/G,,/F,,/ | 
[V:1] A4A3/A/ & [FC][FC][FC][FC][FC][FC] | 
[V:2] E,/D,/^^C,/D,/ B,/A,/G,/F,/ E,/D,/F,/A,/ | 
[V:1] A2G4 & [EC][EC][EC][EC][EC][EC] | 
[V:2] G,,/C,/E,/C,/G,3E, | 
[V:1] e4e2- & [cE][cE][cE][cE][cE][cE] | 
[V:2] C/G,/A,/E,/G,2C/G,/A,/E,/ | 
[V:1] e2c4 & [cE][cE][EC][EC][GC][GC] | 
[V:2] G,2A,/E,/G,/>C,/E,2- | 
[V:1] G4G2 & [CG,][CG,][ECG,][ECG,][F^B,G,][FB,G,] | 
[V:2] E,2-E,/^^F,,/A,,/G,,< D,C,/ | 
[V:1] G2F4 | 
[V:2] [^EB,G,][EB,G,] [=E^A,F,][EA,F,] [D=A,F,][DA,F,] & C,2-C,/^E,,/G,,/F,,/B,,2- | 
[V:1] E2ED D7//C// | 
[V:2] [DG,E,][DG,E,] [CG,E,][C^^F,D,] [C^F,D,][^B,F,D,] & B,,/D,,/F,,/E,,/ ^A,,/^^C,,/E,,/D,,< =A,,G,,/ | 
[V:1] [CE,][ECG,][ECG,][ECG,] [DCF,][D^B,F,] | 
[V:2] C,,2-C,,/D,,/F,,/E,,< A,,G,,/ | 
[V:1] [CE,][ECG,][DCF,]!fermata!z2[D^B,F,] | 
[V:2] C,,/D,,/F,,/E,,/A,,!fermata!z2G,, | 
[V:1] [C2E,2]z2[C2E,2] | 
[V:2] C,,2z2.[G,,2C,,2] | 
[V:1] [C6E,6] |]  
[V:2] [G,,6C,,6] |]
